;TIME:1305.54
;Filament used:2.18418m
;Layer height:0.200
; HEADER_BLOCK_START
; generated by Creality_Print V6.1.0.2041 on 2025-05-22 at 00:10:50
; total layer number: 25
; filament_density: 1.24,1.25,1.24,1.25,1.25,1.25,1.25,1.25,1.25
; filament_diameter: 1.75,1.75,1.75,1.75,1.75,1.75,1.75,1.75,1.75
; max_z_height: 5.00
; HEADER_BLOCK_END

; MINX = 82.00
; MINY = 82.00
; MINZ = 0.00
; MAXX = 138.00
; MAXY = 138.00
; MAXZ = 5.00

; THUMBNAIL_BLOCK_START

;
; THUMBNAIL_BLOCK_END

; THUMBNAIL_BLOCK_START

;
; THUMBNAIL_BLOCK_END

; external perimeters extrusion width = 0.42mm
; perimeters extrusion width = 0.45mm
; infill extrusion width = 0.45mm
; solid infill extrusion width = 0.42mm
; top infill extrusion width = 0.42mm
; support material extrusion width = 0.40mm
; first layer extrusion width = 0.50mm

; EXECUTABLE_BLOCK_START
M73 P0 R21
M201 X5000 Y5000 Z500 E5000
M203 X500 Y500 Z30 E100
M204 P5000 R2500 T5000 ; sets acceleration (P, T) and retract acceleration (R), mm/sec^2
M205 X10.00 Y10.00 Z0.40 E5.00 ; sets the jerk limits, mm/sec
;TYPE:Custom
M220 S100 ;Reset Feedrate 
M221 S100 ;Reset Flowrate 
 
M140 S50 ;Set final bed temp 
G28 ;Home 
 
G92 E0 ;Reset Extruder 
G1 Z2.0 F3000 ;Move Z Axis up 
M104 S190 ;Set final nozzle temp 
G1 X-2.1 Y20 Z0.28 F5000.0 ;Move to start position 
M190 S50 ;Wait for bed temp to stabilize 
M109 S190 ;Wait for nozzle temp to stabilize 
G1 X-2.1 Y145.0 Z0.28 F1500.0 E15 ;Draw the first line 
G1 X-2.4 Y145.0 Z0.28 F5000.0 ;Move to side a little 
G1 X-2.4 Y20 Z0.28 F1500.0 E30 ;Draw the second line 
G92 E0  ;Reset Extruder 
G1 E-1.0000 F1800 ;Retract a bit 
G1 Z2.0 F3000 ;Move Z Axis up 
G1 E0.0000 F1800
G90
G21
M83 ; use relative distances for extrusion
" "
; MANUAL_TOOL_CHANGE T0
G1 E-1.2 F2400
M106 S0
;LAYER_CHANGE
;Z:0.2
;HEIGHT:0.2
;BEFORE_LAYER_CHANGE
;0.2
G92 E0

;_SET_FAN_SPEED_CHANGING_LAYER
M204 P500
M205 X10 Y10
; printing object Object_1 id:0 copy 0
M204 T500
G1 Z.2 F9000
G1 X130.37 Y126.505
G1 E1.2 F1800
;TYPE:Inner wall
;WIDTH:0.499999
G1 X130.365 Y126.505 E.00016
G1 X130.092 Y126.691 E.01192
G1 X129.768 Y127.073 E.01812
G1 X129.626 Y127.377 E.01211
G1 X129.695 Y127.677 E.0111
G1 X129.39 Y127.64 E.0111
G1 X129.107 Y127.81 E.01192
G1 X128.761 Y128.174 E.01814
G1 X128.602 Y128.47 E.01211
G1 X128.654 Y128.773 E.0111
G1 X128.351 Y128.719 E.0111
G1 X128.059 Y128.872 E.01192
G1 X127.693 Y129.216 E.01814
G1 X127.517 Y129.501 E.01211
G1 X127.552 Y129.807 E.0111
G1 X127.253 Y129.736 E.0111
G1 X126.952 Y129.872 E.01192
G1 X126.567 Y130.194 E.01814
G1 X126.375 Y130.47 E.01211
G1 X126.392 Y130.777 E.01109
G1 X126.098 Y130.688 E.01109
G1 X125.79 Y130.807 E.01192
G1 X125.387 Y131.107 E.01814
G1 X125.18 Y131.371 E.01211
G1 X125.18 Y131.678 E.0111
G1 X124.891 Y131.574 E.0111
G1 X124.576 Y131.675 E.01192
G1 X124.157 Y131.951 E.01814
G1 X123.935 Y132.203 E.01211
G1 X123.917 Y132.51 E.0111
G1 X123.635 Y132.389 E.0111
G1 X123.315 Y132.472 E.01192
G1 X122.881 Y132.724 E.01814
G1 X122.645 Y132.962 E.01211
G1 X122.609 Y133.268 E.0111
G1 X122.334 Y133.13 E.0111
G1 X122.011 Y133.195 E.01192
G1 X121.562 Y133.422 E.01814
G1 X121.313 Y133.647 E.01211
G1 X121.261 Y133.95 E.0111
G1 X120.994 Y133.797 E.0111
G1 X120.667 Y133.843 E.01192
G1 X120.207 Y134.044 E.01812
G1 X119.945 Y134.254 E.01211
G1 X119.875 Y134.553 E.0111
G1 X119.618 Y134.386 E.0111
G1 X119.286 Y134.414 E.01202
G1 X118.816 Y134.587 E.01808
G1 X118.543 Y134.782 E.01211
M73 P1 R21
M73 P1 R21
G1 X118.456 Y135.077 E.01108
G1 X118.209 Y134.895 E.01108
G1 X117.879 Y134.904 E.01192
G1 X117.399 Y135.05 E.01812
G1 X117.115 Y135.23 E.01211
G1 X117.012 Y135.519 E.01109
G1 X116.775 Y135.323 E.01109
G1 X116.445 Y135.313 E.01192
G1 X115.957 Y135.432 E.01814
G1 X115.664 Y135.595 E.01211
G1 X115.544 Y135.878 E.0111
G1 X115.318 Y135.669 E.0111
G1 X114.989 Y135.639 E.01192
G1 X114.495 Y135.731 E.01814
G1 X114.193 Y135.876 E.01211
G1 X114.057 Y136.152 E.0111
G1 X113.844 Y135.93 E.0111
G1 X113.517 Y135.882 E.01192
G1 X113.019 Y135.945 E.01814
G1 X112.709 Y136.073 E.01211
G1 X112.558 Y136.341 E.0111
G1 X112.358 Y136.108 E.0111
G1 X112.034 Y136.041 E.01192
G1 X111.533 Y136.075 E.01814
G1 X111.216 Y136.186 E.01211
G1 X111.05 Y136.444 E.0111
G1 X110.863 Y136.199 E.0111
G1 X110.544 Y136.115 E.01192
G1 X110.042 Y136.12 E.01814
G1 X109.719 Y136.212 E.01211
G1 X109.538 Y136.461 E.0111
G1 X109.366 Y136.206 E.0111
G1 X109.052 Y136.103 E.01192
G1 X108.551 Y136.08 E.01814
G1 X108.223 Y136.153 E.01211
G1 X108.028 Y136.391 E.0111
G1 X107.871 Y136.127 E.0111
G1 X107.564 Y136.006 E.01192
G1 X107.064 Y135.955 E.01814
G1 X106.733 Y136.009 E.01211
G1 X106.525 Y136.236 E.01109
G1 X106.383 Y135.963 E.01109
G1 X106.083 Y135.825 E.01192
G1 X105.587 Y135.745 E.01814
G1 X105.254 Y135.78 E.01211
G1 X105.033 Y135.994 E.0111
G1 X104.907 Y135.714 E.0111
G1 X104.615 Y135.559 E.01192
G1 X104.125 Y135.451 E.01814
G1 X103.79 Y135.467 E.01211
G1 X103.557 Y135.668 E.0111
G1 X103.447 Y135.381 E.0111
G1 X103.165 Y135.21 E.01192
G1 X102.681 Y135.074 E.01814
G1 X102.346 Y135.071 E.01211
G1 X102.102 Y135.259 E.0111
G1 X102.009 Y134.966 E.0111
G1 X101.737 Y134.779 E.01192
G1 X101.262 Y134.615 E.01813
G1 X100.927 Y134.593 E.01211
G1 X100.674 Y134.766 E.01109
G1 X100.597 Y134.469 E.01109
G1 X100.334 Y134.265 E.01202
G1 X99.87 Y134.076 E.01808
G1 X99.538 Y134.035 E.01211
G1 X99.274 Y134.194 E.0111
G1 X99.214 Y133.892 E.0111
G1 X98.966 Y133.675 E.01192
G1 X98.513 Y133.459 E.01812
G1 X98.183 Y133.399 E.01211
G1 X97.911 Y133.542 E.0111
G1 X97.869 Y133.238 E.0111
G1 X97.632 Y133.007 E.01192
G1 X97.192 Y132.765 E.01814
G1 X96.866 Y132.686 E.01211
G1 X96.586 Y132.813 E.01109
G1 X96.562 Y132.507 E.01109
G1 X96.339 Y132.263 E.01192
G1 X95.913 Y131.996 E.01814
G1 X95.592 Y131.899 E.01211
G1 X95.306 Y132.01 E.0111
G1 X95.299 Y131.703 E.0111
G1 X95.09 Y131.447 E.01192
G1 X94.681 Y131.156 E.01814
G1 X94.366 Y131.041 E.01211
G1 X94.073 Y131.136 E.0111
G1 X94.084 Y130.829 E.0111
G1 X93.89 Y130.561 E.01192
G1 X93.498 Y130.247 E.01814
G1 X93.19 Y130.114 E.01211
G1 X92.893 Y130.192 E.0111
G1 X92.921 Y129.886 E.0111
G1 X92.743 Y129.608 E.01192
G1 X92.369 Y129.272 E.01814
G1 X92.069 Y129.122 E.01211
G1 X91.768 Y129.182 E.01109
G1 X91.813 Y128.878 E.01109
G1 X91.652 Y128.591 E.01192
G1 X91.297 Y128.234 E.01814
G1 X91.007 Y128.067 E.01211
G1 X90.702 Y128.11 E.0111
G1 X90.765 Y127.809 E.0111
G1 X90.62 Y127.513 E.01192
G1 X90.287 Y127.137 E.01814
G1 X90.006 Y126.953 E.01211
G1 X89.7 Y126.979 E.0111
G1 X89.78 Y126.682 E.0111
G1 X89.652 Y126.378 E.01192
G1 X89.341 Y125.984 E.01812
G1 X89.071 Y125.784 E.01211
G1 X88.764 Y125.793 E.0111
G1 X88.86 Y125.501 E.0111
G1 X88.749 Y125.187 E.01202
G1 X88.462 Y124.777 E.01809
G1 X88.204 Y124.562 E.01211
G1 X87.897 Y124.554 E.01108
G1 X88.01 Y124.268 E.01108
G1 X87.918 Y123.951 E.01192
G1 X87.654 Y123.524 E.01812
G1 X87.408 Y123.296 E.01211
G1 X87.102 Y123.269 E.0111
G1 X87.231 Y122.99 E.0111
G1 X87.157 Y122.668 E.01192
G1 X86.918 Y122.226 E.01814
G1 X86.686 Y121.984 E.01211
G1 X86.382 Y121.94 E.0111
G1 X86.527 Y121.669 E.0111
G1 X86.471 Y121.343 E.01192
G1 X86.258 Y120.889 E.01814
G1 X86.04 Y120.634 E.01211
G1 X85.739 Y120.572 E.0111
G1 X85.899 Y120.31 E.0111
G1 X85.862 Y119.982 E.01192
G1 X85.675 Y119.516 E.01814
G1 X85.472 Y119.248 E.01211
G1 X85.175 Y119.17 E.0111
G1 X85.35 Y118.917 E.0111
G1 X85.332 Y118.587 E.01192
G1 X85.171 Y118.111 E.01814
G1 X84.984 Y117.833 E.01211
G1 X84.692 Y117.738 E.0111
G1 X84.881 Y117.495 E.0111
G1 X84.882 Y117.165 E.01192
G1 X84.749 Y116.681 E.01814
G1 X84.578 Y116.392 E.01211
G1 X84.291 Y116.28 E.0111
G1 X84.494 Y116.049 E.0111
G1 X84.514 Y115.719 E.01192
G1 X84.408 Y115.228 E.01814
G1 X84.254 Y114.93 E.01211
G1 X83.975 Y114.802 E.0111
G1 X84.19 Y114.583 E.0111
G1 X84.229 Y114.255 E.01192
G1 X84.152 Y113.759 E.01814
G1 X84.015 Y113.453 E.01211
G1 X83.743 Y113.309 E.0111
G1 X83.971 Y113.102 E.0111
G1 X84.028 Y112.777 E.01192
G1 X83.979 Y112.277 E.01814
G1 X83.86 Y111.963 E.01211
G1 X83.597 Y111.804 E.0111
G1 X83.836 Y111.611 E.0111
G1 X83.912 Y111.29 E.01192
G1 X83.892 Y110.788 E.01814
G1 X83.79 Y110.468 E.01211
G1 X83.537 Y110.294 E.0111
G1 X83.787 Y110.115 E.0111
G1 X83.88 Y109.798 E.01192
G1 X83.889 Y109.296 E.01814
G1 X83.806 Y108.971 E.01211
G1 X83.563 Y108.783 E.0111
G1 X83.823 Y108.618 E.0111
G1 X83.935 Y108.307 E.01192
G1 X83.972 Y107.806 E.01814
G1 X83.908 Y107.477 E.01211
G1 X83.676 Y107.276 E.01109
G1 X83.944 Y107.126 E.01109
G1 X84.074 Y106.822 E.01192
G1 X84.14 Y106.324 E.01814
G1 X84.095 Y105.992 E.01211
G1 X83.874 Y105.777 E.0111
G1 X84.151 Y105.643 E.0111
G1 X84.297 Y105.347 E.01192
G1 X84.392 Y104.854 E.01814
G1 X84.366 Y104.519 E.01211
G1 X84.158 Y104.293 E.0111
G1 X84.442 Y104.174 E.0111
G1 X84.605 Y103.887 E.01192
G1 X84.727 Y103.4 E.01814
G1 X84.72 Y103.065 E.01211
G1 X84.526 Y102.827 E.0111
G1 X84.816 Y102.725 E.0111
G1 X84.995 Y102.448 E.01192
G1 X85.145 Y101.968 E.01814
G1 X85.157 Y101.633 E.01211
G1 X84.977 Y101.384 E.0111
G1 X85.272 Y101.299 E.0111
G1 X85.467 Y101.033 E.01192
G1 X85.644 Y100.562 E.01814
G1 X85.676 Y100.228 E.01211
G1 X85.51 Y99.97 E.0111
G1 X85.81 Y99.901 E.0111
G1 X86.019 Y99.647 E.01192
G1 X86.223 Y99.187 E.01814
G1 X86.273 Y98.856 E.01211
G1 X86.122 Y98.588 E.0111
G1 X86.425 Y98.537 E.0111
G1 X86.649 Y98.295 E.01192
G1 X86.879 Y97.848 E.01814
G1 X86.948 Y97.519 E.01211
G1 X86.813 Y97.243 E.0111
G1 X87.118 Y97.21 E.0111
G1 X87.356 Y96.98 E.01192
G1 X87.61 Y96.547 E.01814
G1 X87.698 Y96.224 E.01211
G1 X87.579 Y95.94 E.0111
G1 X87.886 Y95.924 E.0111
G1 X88.136 Y95.709 E.01192
G1 X88.415 Y95.291 E.01813
G1 X88.521 Y94.973 E.01211
G1 X88.418 Y94.684 E.01109
G1 X88.725 Y94.686 E.01109
G1 X88.989 Y94.483 E.01202
G1 X89.29 Y94.083 E.01808
G1 X89.414 Y93.771 E.01211
G1 X89.328 Y93.476 E.0111
G1 X89.635 Y93.495 E.0111
G1 X89.908 Y93.309 E.01192
G1 X90.232 Y92.927 E.01812
G1 X90.374 Y92.623 E.01211
G1 X90.305 Y92.323 E.0111
G1 X90.61 Y92.36 E.0111
G1 X90.893 Y92.19 E.01192
G1 X91.239 Y91.826 E.01814
G1 X91.398 Y91.53 E.01211
G1 X91.346 Y91.227 E.0111
G1 X91.649 Y91.281 E.0111
G1 X91.941 Y91.128 E.01192
G1 X92.307 Y90.784 E.01814
G1 X92.483 Y90.499 E.01211
G1 X92.448 Y90.193 E.0111
G1 X92.747 Y90.264 E.0111
G1 X93.048 Y90.128 E.01192
G1 X93.433 Y89.806 E.01814
G1 X93.625 Y89.53 E.01211
G1 X93.608 Y89.223 E.01109
G1 X93.902 Y89.312 E.01109
G1 X94.21 Y89.193 E.01192
G1 X94.613 Y88.893 E.01814
G1 X94.82 Y88.629 E.01211
G1 X94.82 Y88.322 E.0111
G1 X95.109 Y88.426 E.0111
G1 X95.424 Y88.325 E.01192
G1 X95.843 Y88.049 E.01814
G1 X96.065 Y87.797 E.01211
G1 X96.083 Y87.49 E.0111
G1 X96.365 Y87.611 E.0111
G1 X96.685 Y87.528 E.01192
G1 X97.119 Y87.276 E.01814
G1 X97.355 Y87.038 E.01211
G1 X97.391 Y86.732 E.0111
G1 X97.666 Y86.87 E.0111
G1 X97.989 Y86.805 E.01192
G1 X98.438 Y86.578 E.01814
G1 X98.687 Y86.353 E.01211
G1 X98.739 Y86.05 E.0111
G1 X99.006 Y86.203 E.0111
G1 X99.333 Y86.157 E.01192
G1 X99.793 Y85.956 E.01812
G1 X100.055 Y85.746 E.01211
G1 X100.125 Y85.447 E.0111
G1 X100.382 Y85.614 E.0111
G1 X100.714 Y85.586 E.01202
G1 X101.184 Y85.413 E.01808
G1 X101.457 Y85.218 E.01211
G1 X101.544 Y84.923 E.01108
G1 X101.791 Y85.105 E.01108
G1 X102.121 Y85.096 E.01192
G1 X102.601 Y84.95 E.01812
G1 X102.885 Y84.77 E.01211
G1 X102.988 Y84.481 E.01109
G1 X103.225 Y84.677 E.01109
G1 X103.555 Y84.687 E.01192
G1 X104.043 Y84.568 E.01814
G1 X104.336 Y84.405 E.01211
G1 X104.456 Y84.122 E.0111
G1 X104.682 Y84.331 E.0111
G1 X105.011 Y84.361 E.01192
G1 X105.505 Y84.269 E.01814
G1 X105.807 Y84.124 E.01211
G1 X105.943 Y83.848 E.0111
G1 X106.156 Y84.07 E.0111
G1 X106.483 Y84.118 E.01192
G1 X106.981 Y84.055 E.01814
G1 X107.291 Y83.927 E.01211
G1 X107.442 Y83.659 E.0111
G1 X107.642 Y83.893 E.0111
G1 X107.966 Y83.959 E.01192
G1 X108.467 Y83.925 E.01814
G1 X108.784 Y83.814 E.01211
G1 X108.95 Y83.556 E.0111
G1 X109.137 Y83.801 E.0111
G1 X109.456 Y83.885 E.01192
G1 X109.958 Y83.88 E.01812
G1 X110.28 Y83.788 E.01211
G1 X110.461 Y83.54 E.01108
G1 X110.633 Y83.795 E.01108
G1 X110.949 Y83.898 E.01202
G1 X111.45 Y83.921 E.01812
G1 X111.778 Y83.847 E.01211
G1 X111.972 Y83.609 E.01108
G1 X112.129 Y83.873 E.01108
G1 X112.437 Y83.994 E.01192
G1 X112.936 Y84.045 E.01812
G1 X113.267 Y83.991 E.01211
G1 X113.475 Y83.764 E.01109
G1 X113.617 Y84.037 E.01109
G1 X113.917 Y84.175 E.01192
G1 X114.413 Y84.255 E.01814
G1 X114.746 Y84.22 E.01211
G1 X114.967 Y84.006 E.0111
G1 X115.093 Y84.286 E.0111
G1 X115.385 Y84.441 E.01192
G1 X115.875 Y84.549 E.01814
G1 X116.21 Y84.533 E.01211
G1 X116.443 Y84.332 E.0111
G1 X116.553 Y84.619 E.0111
G1 X116.835 Y84.79 E.01192
G1 X117.319 Y84.926 E.01814
G1 X117.654 Y84.929 E.01211
G1 X117.898 Y84.741 E.0111
G1 X117.991 Y85.034 E.0111
G1 X118.263 Y85.221 E.01192
G1 X118.738 Y85.385 E.01813
G1 X119.073 Y85.407 E.01211
G1 X119.326 Y85.234 E.01109
G1 X119.403 Y85.531 E.01109
G1 X119.666 Y85.735 E.01202
G1 X120.13 Y85.924 E.01808
G1 X120.462 Y85.965 E.01211
G1 X120.726 Y85.806 E.0111
G1 X120.786 Y86.108 E.0111
G1 X121.034 Y86.325 E.01192
G1 X121.487 Y86.541 E.01812
G1 X121.817 Y86.601 E.01211
G1 X122.089 Y86.458 E.0111
G1 X122.131 Y86.762 E.0111
G1 X122.368 Y86.993 E.01192
G1 X122.808 Y87.235 E.01814
G1 X123.134 Y87.314 E.01211
G1 X123.414 Y87.187 E.01109
G1 X123.438 Y87.493 E.01109
G1 X123.661 Y87.737 E.01192
G1 X124.087 Y88.004 E.01814
G1 X124.408 Y88.101 E.01211
G1 X124.694 Y87.99 E.0111
G1 X124.701 Y88.297 E.0111
G1 X124.91 Y88.553 E.01192
G1 X125.319 Y88.844 E.01814
G1 X125.634 Y88.959 E.01211
G1 X125.927 Y88.864 E.0111
G1 X125.916 Y89.171 E.0111
G1 X126.11 Y89.439 E.01192
G1 X126.502 Y89.753 E.01814
G1 X126.81 Y89.886 E.01211
G1 X127.107 Y89.808 E.0111
G1 X127.079 Y90.114 E.0111
G1 X127.257 Y90.392 E.01192
G1 X127.631 Y90.728 E.01814
G1 X127.931 Y90.878 E.01211
G1 X128.232 Y90.818 E.01109
G1 X128.187 Y91.122 E.01109
G1 X128.348 Y91.409 E.01192
G1 X128.703 Y91.766 E.01814
G1 X128.993 Y91.933 E.01211
G1 X129.298 Y91.89 E.0111
G1 X129.235 Y92.191 E.0111
G1 X129.38 Y92.487 E.01192
G1 X129.713 Y92.863 E.01814
G1 X129.994 Y93.047 E.01211
G1 X130.3 Y93.021 E.0111
G1 X130.22 Y93.318 E.0111
G1 X130.348 Y93.622 E.01192
G1 X130.659 Y94.016 E.01812
G1 X130.929 Y94.216 E.01211
G1 X131.236 Y94.207 E.0111
G1 X131.14 Y94.499 E.0111
G1 X131.251 Y94.813 E.01202
G1 X131.538 Y95.223 E.01809
G1 X131.796 Y95.438 E.01211
G1 X132.103 Y95.446 E.01108
G1 X131.99 Y95.732 E.01108
G1 X132.082 Y96.049 E.01192
G1 X132.346 Y96.476 E.01812
G1 X132.592 Y96.704 E.01211
G1 X132.898 Y96.731 E.0111
G1 X132.769 Y97.01 E.0111
G1 X132.843 Y97.332 E.01192
G1 X133.082 Y97.774 E.01814
G1 X133.314 Y98.016 E.01211
G1 X133.618 Y98.06 E.0111
G1 X133.473 Y98.331 E.0111
G1 X133.529 Y98.657 E.01192
G1 X133.742 Y99.111 E.01814
G1 X133.96 Y99.366 E.01211
G1 X134.261 Y99.428 E.0111
G1 X134.101 Y99.69 E.0111
G1 X134.138 Y100.018 E.01192
G1 X134.325 Y100.484 E.01814
G1 X134.528 Y100.752 E.01211
G1 X134.825 Y100.83 E.0111
G1 X134.65 Y101.083 E.0111
G1 X134.668 Y101.413 E.01192
G1 X134.829 Y101.889 E.01814
G1 X135.016 Y102.167 E.01211
G1 X135.308 Y102.262 E.0111
G1 X135.119 Y102.505 E.0111
G1 X135.118 Y102.835 E.01192
G1 X135.251 Y103.319 E.01814
G1 X135.422 Y103.608 E.01211
G1 X135.709 Y103.72 E.0111
G1 X135.506 Y103.951 E.0111
G1 X135.486 Y104.281 E.01192
G1 X135.592 Y104.772 E.01814
G1 X135.746 Y105.07 E.01211
G1 X136.025 Y105.198 E.0111
G1 X135.81 Y105.417 E.0111
G1 X135.771 Y105.745 E.01192
G1 X135.848 Y106.241 E.01814
G1 X135.985 Y106.547 E.01211
G1 X136.257 Y106.691 E.0111
G1 X136.029 Y106.898 E.0111
G1 X135.972 Y107.223 E.01192
G1 X136.021 Y107.723 E.01814
G1 X136.14 Y108.037 E.01211
G1 X136.403 Y108.196 E.0111
G1 X136.164 Y108.389 E.0111
G1 X136.088 Y108.71 E.01192
G1 X136.108 Y109.212 E.01814
G1 X136.21 Y109.532 E.01211
G1 X136.463 Y109.706 E.0111
G1 X136.213 Y109.885 E.0111
G1 X136.12 Y110.202 E.01192
G1 X136.111 Y110.704 E.01814
G1 X136.194 Y111.029 E.01211
G1 X136.437 Y111.217 E.0111
G1 X136.177 Y111.382 E.0111
G1 X136.065 Y111.693 E.01192
G1 X136.028 Y112.194 E.01814
G1 X136.092 Y112.523 E.01211
G1 X136.324 Y112.724 E.01109
G1 X136.056 Y112.874 E.01109
G1 X135.926 Y113.178 E.01192
G1 X135.86 Y113.676 E.01814
G1 X135.905 Y114.008 E.01211
